X: 58
T: Forkert Hamborg
B:[[Notböcker/Melodier til gamle danske Almuedanse for Violin solo]]
O:Danmark
Z:Søren Bak Vestergaard
M: 2/4
L: 1/16
K: G
d2Bd g2fe|d2B2 BGBd|c2F2 FDFA|B2G2 GDGB|\
d2Bd g2fe|d2B2 BGBd|c2F2 FDFA|1 G2G2G2 z2:|2 G2G2G2\
|:"^8va ad lib."AB|c2c2 cAFA|B2G2 GDGB|A2F2 FDFA|B2G2 GDGB|\
c2c2 cAFA|B2G2 GDGB|A2F2 FDFA|1 G2G2G2:|2 G2G2G2 z2|]

